packages/icons/src/heart.svg

<svg width="24" height="24" viewBox="0 0 24 24" fill="none" xmlns="http://www.w3.org/2000/svg">
<path fill-rule="evenodd" clip-rule="evenodd" d="M20.8388 5.63609C22.927 7.72431 22.985 11.0739 21.0128 13.2322L20.8388 13.4143L12 22.2531L3.16114 13.4142C1.01326 11.2664 1.01326 7.78394 3.16114 5.63606C5.24936 3.54784 8.599 3.48983 10.7573 5.46204L10.9393 5.63606L11.9992 6.69515L13.0606 5.63609C15.2085 3.48821 18.6909 3.48821 20.8388 5.63609ZM14.6245 6.90909L14.4749 7.0503L11.9992 9.52515L9.52511 7.05027C8.25277 5.77793 6.24455 5.68997 4.87047 6.78638L4.71481 6.91815L4.57536 7.05027C3.25734 8.36829 3.21027 10.476 4.43414 11.8504L4.57536 12L11.9992 19.4251L19.4246 12.0001C20.6969 10.7277 20.7849 8.7195 19.6885 7.34541L19.5567 7.18976L19.4246 7.0503C18.1554 5.7811 16.1539 5.69044 14.7801 6.77833L14.6245 6.90909Z" fill="black"/>
</svg>

<svg xmlns="http://www.w3.org/2000/svg" width="24" height="24" fill="none" viewBox="0 0 24 24">
  <path fill="#000" fill-rule="evenodd" d="M20.839 5.636a5.5 5.5 0 0 1 .174 7.596l-.174.182L12 22.254l-8.839-8.84a5.5 5.5 0 0 1 7.596-7.952l.182.174L12 6.696l1.062-1.06a5.5 5.5 0 0 1 7.778 0ZM14.625 6.91l-.15.141-2.476 2.475L9.525 7.05a3.5 3.5 0 0 0-4.655-.264l-.155.132-.14.132a3.5 3.5 0 0 0-.14 4.8l.14.15L12 19.425 19.425 12a3.5 3.5 0 0 0 .264-4.655l-.132-.155-.132-.14a3.5 3.5 0 0 0-4.645-.272l-.155.131Z" clip-rule="evenodd"/>
</svg>
